X:117
T:The Concertina Reel
R: Reel
M: 4/4
L: 1/8
K: D
A2FA BAFA | A2FA BAFA | B2cA B2cA | B2cA BAFA |
A2FA BAFA | A2FA BAFE | DFAB d2dB | AFEF D4 :|
|: Add2 Add2 | Add2 BAFA | B2cA B2cA | B2cA BAFA |
Add2 Add2 | Add2 BAFE | DFAB d2dB | AFEF D4 :|

